X: 107
T:Ironlegs. WI.107
M:C|
Q:180
C:"a hornpipe"
S:Wm Irwin, Folio MS, c1850. AGG's Transcription
R:Hornipe
O:England
A:Lake District
Z:vmp.Chris Partington.2005
K:D
AG|F2AF E2AG|FGEF D2A2|B2c2 d2ed|cdBc A3G|!
F2AF E2AG|FGEF D2A2|Bcde fedc|d2d2 d2:|!
|:g2|fgfg efef|fgfg efef|dede cdcd|dede cdcd|!
BcBc ABAB|BcBc ABAg|Bcde fedc|d2d2 d2:|]
